X: 12
T: Adam's Hornpipe
M:C
L:1/8
R:Hornpipe
B:Goulding & Co. - Twenty Four Country Dances for the Year 1808 (London)
N:"With proper Tune & Directions to each Dance (as they may be
N:performed at Court, Bath, and all Public Assemblys."
Z:Transcribed and edited by Flynn Titford-Mock
Z:abcs's:AK/Fiddler's Companion
Z:Minor corrections by John Chambers 2010-12
K:F
cefa gedc | defd dcBA | BcdB ABcA | dcBA A2G2 |
cefa gedc | defd dcBA | BcdB cagf | gece f2F2 :|
|:\
afcA cfaf | gecA FAcf | defd cefc | cBAG A2G2 |
afcA cfaf | gecA FAcf | dbca BgAf | cBAG A2F2 :|

%%sep 1 1 500
